icon-svg/bulb-group-classic-4-alt.svg

<svg xmlns="http://www.w3.org/2000/svg" viewBox="0 0 24 24"><path fill="#44739e" d="M14.754 15.101a8.5 8.5 0 0 0-.12 1.931.67.67 0 0 1-.606.727 19 19 0 0 1-2.033.1 19 19 0 0 1-2.032-.1.677.677 0 0 1-.616-.727 8 8 0 0 0-.119-1.931c-.221-1.3-1.141-1.912-1.665-3.301a16.6 16.6 0 0 0 4.437.545 16.6 16.6 0 0 0 4.433-.543c-.534 1.39-1.453 2.006-1.674 3.301m-1.03 5.49a.67.67 0 0 1-.211.395l-.322.3a.4.4 0 0 0-.065.064l-.34.4a.7.7 0 0 1-.542.248h-.506a.67.67 0 0 1-.524-.239l-.34-.4a.4.4 0 0 0-.065-.064l-.327-.296a.63.63 0 0 1-.211-.4l-.35-2.142c.718.064 1.508.092 2.069.092s1.352-.028 2.069-.092Zm3.1-10.668a5 5 0 0 1-.055.561 8 8 0 0 1-.092.488 13 13 0 0 1-4.682.69 13 13 0 0 1-4.68-.68 4 4 0 0 1-.092-.488 6 6 0 0 1-.055-.56 4.841 4.841 0 0 1 9.655-.01m-1.83-6.409A3.85 3.85 0 0 0 12 2a3.85 3.85 0 0 0-3 1.517 4.6 4.6 0 0 1 1.407 1.251A5.4 5.4 0 0 1 12 4.529a5.7 5.7 0 0 1 1.591.239 4.7 4.7 0 0 1 1.407-1.251M9.871 4.961a3.85 3.85 0 0 0-2.942-1.453 3.78 3.78 0 0 0-3.743 3.476 3 3 0 0 0 .046.432c.019.138.046.248.074.377a9.4 9.4 0 0 0 3.246.524 5.98 5.98 0 0 1 3.319-3.356m-3.485 3.88a11.5 11.5 0 0 1-2.9-.4c.4 1.076 1.112 1.554 1.287 2.556a6.3 6.3 0 0 1 .092 1.5.523.523 0 0 0 .478.562 13 13 0 0 0 1.573.083c.092 0 .174-.01.257-.01a6.7 6.7 0 0 1-.759-1.932v-.009l-.014-.069a.06.06 0 0 1-.009-.037c-.009-.037-.009-.074-.018-.11-.019-.111-.046-.23-.065-.377-.009-.056-.009-.111-.018-.157a4 4 0 0 1-.037-.505 4.4 4.4 0 0 1 .138-1.1m.543 4.829c-.432 0-1.048-.028-1.6-.074l.266 1.67a.53.53 0 0 0 .166.3l.248.221c.019.018.037.027.046.055l.267.313a.51.51 0 0 0 .4.184h.4a.56.56 0 0 0 .423-.194l.25-.309c.019-.019.028-.037.056-.046l.248-.23a.57.57 0 0 0 .165-.313l.009-.11a4 4 0 0 0-.652-1.306c-.037-.055-.074-.119-.111-.175-.211.01-.414.01-.588.019m13.887-6.695a3.78 3.78 0 0 0-3.743-3.467 3.84 3.84 0 0 0-2.942 1.444 6 6 0 0 1 3.3 3.365 9.6 9.6 0 0 0 3.255-.524c.028-.129.055-.239.074-.377s.046-.276.055-.441m-4 6.143c.083 0 .165.009.257.009a16 16 0 0 0 1.573-.082.517.517 0 0 0 .469-.562 6.2 6.2 0 0 1 .092-1.5c.174-1 .882-1.481 1.3-2.556a11.7 11.7 0 0 1-2.906.4 4.4 4.4 0 0 1 .147 1.085 4 4 0 0 1-.045.506c-.01.046-.01.1-.019.147 0 .018-.009.037-.009.055a2 2 0 0 1-.046.248v.01a1.5 1.5 0 0 1-.055.285v.009c-.092.349-.249.864-.285.956a7 7 0 0 1-.469.985M15.7 15.101l.028.157a.52.52 0 0 0 .165.3l.248.23.046.046.267.313a.52.52 0 0 0 .405.184h.395a.56.56 0 0 0 .423-.194l.267-.312.046-.046.23-.23a.55.55 0 0 0 .165-.3l.267-1.655c-.552.055-1.168.074-1.6.074-.166 0-.377 0-.589-.009l-.11.165a4.4 4.4 0 0 0-.653 1.277"/></svg>

<svg xmlns="http://www.w3.org/2000/svg" fill="#44739e" width="24" height="24" version="1.1" viewBox="0 0 24 24"><path d="m 14.754,15.1 a 8.468,8.468 0 0 0 -0.12,1.931 0.67,0.67 0 0 1 -0.606,0.727 19.085,19.085 0 0 1 -2.033,0.1 19.079,19.079 0 0 1 -2.032,-0.1 A 0.677,0.677 0 0 1 9.347,17.031 7.986,7.986 0 0 0 9.228,15.1 C 9.007,13.8 8.087,13.188 7.563,11.8 A 16.559,16.559 0 0 0 12,12.345 16.562,16.562 0 0 0 16.433,11.802 c -0.534,1.389 -1.453,2.005 -1.674,3.3 m -1.03,5.49 a 0.672,0.672 0 0 1 -0.211,0.395 l -0.322,0.3 a 0.439,0.439 0 0 0 -0.065,0.064 l -0.34,0.4 a 0.706,0.706 0 0 1 -0.542,0.248 H 11.743 A 0.665,0.665 0 0 1 11.219,21.76 l -0.34,-0.4 A 0.433,0.433 0 0 0 10.814,21.296 L 10.487,21 a 0.626,0.626 0 0 1 -0.211,-0.4 l -0.35,-2.142 c 0.718,0.064 1.508,0.092 2.069,0.092 0.561,0 1.352,-0.028 2.069,-0.092 z m 3.1,-10.667 a 5.359,5.359 0 0 1 -0.055,0.561 c -0.028,0.175 -0.055,0.322 -0.092,0.488 A 12.945,12.945 0 0 1 12,11.664 12.977,12.977 0 0 1 7.32,10.984 4.045,4.045 0 0 1 7.228,10.496 5.59,5.59 0 0 1 7.173,9.936 4.841,4.841 0 0 1 16.828,9.926 M 14.998,3.517 A 3.85,3.85 0 0 0 12,2 3.849,3.849 0 0 0 9,3.517 4.61,4.61 0 0 1 10.407,4.768 5.44,5.44 0 0 1 12,4.529 5.647,5.647 0 0 1 13.591,4.768 4.73,4.73 0 0 1 14.998,3.517 M 9.871,4.961 A 3.85,3.85 0 0 0 6.929,3.508 3.781,3.781 0 0 0 3.186,6.984 3.34,3.34 0 0 0 3.232,7.416 C 3.251,7.554 3.278,7.664 3.306,7.793 A 9.347,9.347 0 0 0 6.552,8.317 5.978,5.978 0 0 1 9.871,4.961 m -3.485,3.88 a 11.529,11.529 0 0 1 -2.9,-0.4 c 0.4,1.076 1.112,1.554 1.287,2.556 a 6.268,6.268 0 0 1 0.092,1.5 0.523,0.523 0 0 0 0.478,0.561 13.364,13.364 0 0 0 1.573,0.083 c 0.092,0 0.174,-0.01 0.257,-0.01 A 6.683,6.683 0 0 1 6.414,11.2 V 11.191 L 6.4,11.122 A 0.057,0.057 0 0 1 6.391,11.085 C 6.382,11.048 6.382,11.011 6.373,10.975 6.354,10.864 6.327,10.745 6.308,10.598 6.299,10.542 6.299,10.487 6.29,10.441 A 4,4 0 0 1 6.253,9.936 4.411,4.411 0 0 1 6.391,8.836 m 0.543,4.828 c -0.432,0 -1.048,-0.028 -1.6,-0.074 L 5.6,15.26 a 0.531,0.531 0 0 0 0.166,0.3 l 0.248,0.221 c 0.019,0.018 0.037,0.027 0.046,0.055 l 0.267,0.313 a 0.514,0.514 0 0 0 0.4,0.184 h 0.4 A 0.557,0.557 0 0 0 7.55,16.139 L 7.8,15.83 c 0.019,-0.019 0.028,-0.037 0.056,-0.046 l 0.248,-0.23 a 0.572,0.572 0 0 0 0.165,-0.313 l 0.009,-0.11 A 4.046,4.046 0 0 0 7.626,13.825 C 7.589,13.77 7.552,13.706 7.515,13.65 7.304,13.66 7.101,13.66 6.927,13.669 M 20.814,6.975 a 3.78,3.78 0 0 0 -3.743,-3.467 3.842,3.842 0 0 0 -2.942,1.444 6.009,6.009 0 0 1 3.3,3.365 9.644,9.644 0 0 0 3.255,-0.524 C 20.712,7.664 20.739,7.554 20.758,7.416 20.777,7.278 20.804,7.14 20.813,6.975 m -4,6.142 c 0.083,0 0.165,0.009 0.257,0.009 a 15.66,15.66 0 0 0 1.573,-0.082 0.517,0.517 0 0 0 0.469,-0.561 6.239,6.239 0 0 1 0.092,-1.5 c 0.174,-1 0.882,-1.481 1.3,-2.556 a 11.666,11.666 0 0 1 -2.906,0.4 4.406,4.406 0 0 1 0.147,1.085 3.619,3.619 0 0 1 -0.045,0.506 c -0.01,0.046 -0.01,0.1 -0.019,0.147 0,0.018 -0.009,0.037 -0.009,0.055 a 1.988,1.988 0 0 1 -0.046,0.248 v 0.01 a 1.529,1.529 0 0 1 -0.055,0.285 v 0.009 c -0.092,0.349 -0.249,0.864 -0.285,0.956 a 7.085,7.085 0 0 1 -0.469,0.984 M 15.7,15.1 l 0.028,0.157 a 0.524,0.524 0 0 0 0.165,0.3 l 0.248,0.23 0.046,0.046 0.267,0.313 a 0.515,0.515 0 0 0 0.405,0.184 h 0.395 a 0.556,0.556 0 0 0 0.423,-0.194 l 0.267,-0.312 0.046,-0.046 0.23,-0.23 a 0.551,0.551 0 0 0 0.165,-0.3 l 0.267,-1.655 c -0.552,0.055 -1.168,0.074 -1.6,0.074 -0.166,0 -0.377,0 -0.589,-0.009 l -0.11,0.165 A 4.353,4.353 0 0 0 15.7,15.1"/></svg>
